X:11676
T:Nel campu ñacen flores
R:Pasudoble
C:Tradicional
S:Música Tradicional Asturiana, (C) Tello & Tito. Asturies, 2001.
S:http://pagina.de/MusTradAst <telloytito@asturies.org>
A:Asturies
D:Llan de Cubel: Na Llende
D:Felpeyu: Tierra
M:2/4
L:1/8
Q:1/4=140
K:D
 F/G/ |: AA BB | A2 A2- | A3 F/G/ | AA BB | AA FF | DD EE |[1 FF FF- | F3 F/G/ :|[2 D2 D2- | D4 |
 |: A3/2G/ A3/2 G/ | A/B/A/G/ FD |[1 EE F2 | F4 :|[2 EE D2 | D4 ||


